X: 2
T: We'll All Away To Sunniside
R: reel
M: 4/4
L: 1/8
K: Cmaj
|:AcBd ceec|Acgc A2c2|AcBd ceec|BcdB G2B2:|
|:gecg ecge|Acgc A2c2|gecg ecge|BcdB G2B2:|
|:Acgc adgc|Acgc A2c2|Acgc adgc|BcdB G2B2:|
g|:eccg ecge|fdec A2g2|eccg ecgc|BGdB G2B2:|
|:AcBd cedf|ecgc A2c2|AcBd cedc|BGdB G2B2:|
|:e2ce/f/ gcec|ce/f/gc A2c2|e2ce/f/ gcec|BG B/c/d/B/ G2B2:|
|:AcBd cedf|ecgc A2c2|AcBd cedg|BG B/c/d/B/ G2B2:|
|:c/e/g/e/ c/e/g/e/ c/e/g/e/ c/e/g/e/|c/d/e/f/ gc A2c2|c/e/g/e/ c/e/g/e/ c/e/g/e/ c/e/g/e/|BG B/c/d/B/ G2B2:|
|:A/B/c/A/ B/c/d/B/ c/d/e/c/ df|gceg A2c2|A/B/c/A/ B/c/d/B/ c/d/e/c/ dg|BG B/c/d/B/ G2B2:|

